dist/images/brands/logo-chris-watterston.svg

<svg fill="none" viewBox="0 0 60 60" xmlns="http://www.w3.org/2000/svg" xmlns:xlink="http://www.w3.org/1999/xlink"><mask id="a" height="60" maskUnits="userSpaceOnUse" width="60" x="0" y="0"><path d="m30 60c16.569 0 30-13.431 30-30s-13.431-30-30-30-30 13.431-30 30 13.431 30 30 30z" fill="#fff"/></mask><g mask="url(#a)"><path d="m30 60c16.569 0 30-13.431 30-30s-13.431-30-30-30-30 13.431-30 30 13.431 30 30 30z" fill="#fff"/><path clip-rule="evenodd" d="m30.418-2.146s10.995.791 15.098 2.772a64772.9 64772.9 0 0 1 -16.79 16.78l-7.368 3.502-3.952 7.818s-9.659 9.654-15.744 15.737c-1.84-3.82-4.462-15.035-4.462-15.035l5.537-24.558 27.68-7.016z" fill="#efefef" fill-rule="evenodd"/><path d="m32.512 39.163-4.385 4.384.956.956 4.385-4.385zm10.634-10.876-4.387 4.387 1.017 1.017 4.387-4.386z" fill="#04b784"/><path d="m43.302 28.443-4.387 4.387-12.877-12.736-6.227 6.227 12.736 12.877-4.387 4.387-18.254-18.113 15.283-15.283z" fill="#70c8b7"/><path d="m9.906 36.226 4.528-4.528 13.585 13.585 6.226-6.226-13.585-13.585 4.529-4.529 13.584 13.585 6.227-6.226-13.585-13.585 4.528-4.528 18.963 18.961-10.756 10.756-15.282 15.283z" fill="#009788"/><path d="m25.192 20.94-4.532 4.533.81.81 4.532-4.532-.81-.81zm10.753-10.747-4.526 4.525.8.8 4.526-4.525z" fill="#007c6d"/></g></svg>

<svg viewBox="0 0 60 60" fill="none" xmlns="http://www.w3.org/2000/svg"><mask id="a" style="mask-type:alpha" maskUnits="userSpaceOnUse" x="0" y="0" width="60" height="60"><path d="M30 60c16.569 0 30-13.431 30-30C60 13.431 46.569 0 30 0 13.431 0 0 13.431 0 30c0 16.569 13.431 30 30 30z" fill="#fff"/></mask><g mask="url(#a)"><path d="M30 60c16.569 0 30-13.431 30-30C60 13.431 46.569 0 30 0 13.431 0 0 13.431 0 30c0 16.569 13.431 30 30 30z" fill="#fff"/><path fill-rule="evenodd" clip-rule="evenodd" d="M30.418-2.146s10.995.791 15.098 2.772a64772.9 64772.9 0 0 1-16.79 16.78l-7.368 3.502-3.952 7.818S7.747 38.38 1.662 44.463C-.178 40.643-2.8 29.428-2.8 29.428L2.737 4.87l27.68-7.016z" fill="#EFEFEF"/><path d="M32.512 39.163l-4.385 4.384.956.956 4.385-4.385-.956-.955zm10.634-10.876l-4.387 4.387 1.017 1.017 4.387-4.386-1.017-1.018z" fill="#04B784"/><path d="M43.302 28.443l-4.387 4.387-12.877-12.736-6.227 6.227 12.736 12.877-4.387 4.387L9.906 25.472l15.283-15.283 18.113 18.254z" fill="#70C8B7"/><path d="M9.906 36.226l4.528-4.528 13.585 13.585 6.226-6.226L20.66 25.472l4.529-4.529 13.584 13.585L45 28.302 31.415 14.717l4.528-4.528L54.906 29.15 44.15 39.906 28.868 55.189 9.906 36.226z" fill="#009788"/><path d="M25.192 20.94l-4.532 4.533.81.81 4.532-4.532-.81-.81zm10.753-10.747l-4.526 4.525.8.8 4.526-4.525-.8-.8z" fill="#007C6D"/></g></svg>
